!!!OTL: ET QUAM SICK EN HEF[ERK1EN UT DANIA
!!!ARE: 0109C 08  F 3/4
!!!SCT: E0109C
!!!YEM: Copyright 1995, estate of Helmut Schaffrath.
**kern
*ICvox
*Ivox
*M3/4
*k[]
*C:
{4G
=1
4c
4c
4d
=2
4e
4e
4g
=3
4e
4d
4e
=4
2c}
{8e
8f
=5
4g
4g
4a
=6
4g
4g
4b
=7
4cc
4a
4b
=8
2cc}
{4G
=9
4c
4c
4d
=10
4e
4e
4g
=11
4e
4d
4e
=12
2c}
{8e
8f
=13
4g
4g
4a
=14
4g
4g
4b
=15
4cc
4a
4b
=16
2cc}
{8e
8f
=17
4g
4g
4f
=18
4e
4d
4e
=19
4c
4B
4c
=20
2d}
{8e
8f
=21
4g
4g
4f
=22
4e
4d
4e
=23
4G
4A
4B
=24
2c}
==
!!!AGN: erzaehlendes Volks - Lied, Sage, Liebe, Leid, Tod, Ballade ?
!!!ONB: ESAC (Essen Associative Code) Database: ERK1
!!!AMT: simple triple
!!!AIN: vox
!!!EED: Helmut Schaffrath
!!!EEV: 1.0
*-
